X: 267
T:Saddle The Pony
% Nottingham Music Database
S:Trad, arr Phil Rowe
M:6/8
K:G
"G"GBA G2B|"D7"def "G"gdB|GBA G2B|"D7"AFD AFD|
"G"GBA G2B|"D7"def "Em"gfg|"C"ege "D7"dBA|"G"BGG G3::
"Em"efe edB|"D"def "G"gfg|"Em"efe edB|"Bm"dBA ABd|
"Em"efe edB|"D"def "G"gfg|"C"ege "D7"dBA|"G"BGG G3:|<end>
<start>
